!!!SOCIAL_FUNCTION:	war songs
!!!PDT:	1932
!!!OTL: No_125_Song_of_Victory_Over_Black_Hawk.krn
!!!REG: Wisconsin
!!!LANG: Non-Tone
!!!LING_GROUP: Algonquin
**kern
*staff1
=1-
*clefF4
*k[b-e-]
*M2/4
12c\L
12c\
12c\J
4c\
=2
16B-\LK
8.c\J
8.c\L
16B-\Jk
=3
2B-\
=4
8B-\L
8B-\J
4B-\
=5
8G\L
8G\J
4r
=6
12B-\L
12c\
12c\J
4B-\
=7
16G\LK
8.G\J
8.G\L
16F\Jk
=8
2F\
=9
8G\L
8F\J
4F\
=10
8F\L
8F\J
4r
=11
12B-\L
12B-\
12B-\J
4G\
=12
16F\LK
8.G\J
8.G\L
16F\Jk
=13
2F\
=14
8G\L
8F\J
4F\
=15
8D\L
8D\J
4r
=16
12F\L
12F\
12G\J
4F\
=17
16D\LK
8.D\J
(8.D/L
16BB-/Jk)
=18
4.BB-/
8r
=19
8D/L
8BB-/J
4BB-/
=20
8BB-/L
8BB-/J
4r
=21
12D\L
12D\
12D\J
4C/
=22
16BB-/LK
8.C/J
8.C/L
16BB-/Jk
=23
4BB-/
4r
=24
8D/L
8BB-/J
4BB-/
=25
8BB-/L
8BB-/J
4r
==
*-
